X: 1267
T: The Merry Sisters
M:C|
L:1/8
R:Reel
B:O'Neill's 1267
N:Collected by Mrs. Cantwell
Z:Transcribed by Trish O'Neil
Z:Corrected by John Chambers
K:Em
B>E (3FED BdcA | B>E (3FED dAFA | B>E (3FED BdcA |1 d>D (3DDD ADFA :|2 dAFB E2z2 ||
Bee^cd2cA | Bee^c dAFA | Bee^cd2cA | BAB^c dAFA |
Bee^cd2cA | Bee^c defg | (3agf (3gfe fdec | BABc dAFA ||
BdcA BFAF | B>E (3.E.E.E BEFA | BdcA BFAF | d>D (3.D.D.D ADFA |
BdcA BFAF | B>E (3.E.E.E BEFA | DFA^cd2eg | fde^c dAFA |]


